X: 03015
T: CAL'S JIG
C: Bob McQuillen Nov 76
B: Bob's Note Book 03 #15
R: jig
%D:1976
Z: 2020 John Chambers <jc:trillian.mit.edu>
M: 6/8
L: 1/8
K: A
E \
| ABA GFG | A2A, A,2E | ABc dcB | efe dcB |\
| ABA GFG | ABc def | e2c BcB | A3- A2 :|
|: c \
| efe ecA | dcd BGE | efe ecA | dcd B2E |\
| ABA GFE | efg agf | edc BAG | A3- A2 :|
%%begintext align
%% Cal Howard is damn near
%% indispensable on any dance
%% stage, and this tune is for
%% him, with best wishes
%% always -
%%endtext

%%sep 1 1 500

%%sep 1 1 500

